X:90
T:The Gal With The Blue Dress
M:C|
L:1/4
Q:1/4=120
K:Dm
F|\
FA cc/c/|dc A2|AG GF|A G2 F|
FA cc/c/|dc A2|GF AG|D2 D ||
